X: 18360
T: Humours Of Whiskey, The
R: slip jig
M: 9/8
K: Dmajor
f|:gfe fBB fBB|gfe fBB fga/A|gfe fBB fBB|agf efd cBA:|
|:d2e fdf ecA/a|d2e fed gfe|d2e fdf efg|1 agf efd cBA:|2 efd cBA B3||

